Yaru++/mimetypes/48/text-x-systemd-unit.svg

<svg height="48" viewBox="0 0 12.7 12.7" width="48" xmlns="http://www.w3.org/2000/svg" xmlns:xlink="http://www.w3.org/1999/xlink"><linearGradient id="a" gradientUnits="userSpaceOnUse" x1="344" x2="344" y1="62" y2="106"><stop offset="0" stop-color="#fff"/><stop offset=".125" stop-color="#fff" stop-opacity=".098039"/><stop offset=".92500001" stop-color="#fff" stop-opacity=".098039"/><stop offset="1" stop-color="#fff" stop-opacity=".498039"/></linearGradient><clipPath id="b"><path d="m335.73108 62c-8.82418 0-9.77365.90635-9.7304 9.74838v12.25162 12.25162c-.0433 8.84203.90622 9.74838 9.7304 9.74838h16.53919c8.82418 0 9.7304-.90625 9.7304-9.74838v-12.25162-12.25162c0-8.84213-.90622-9.74838-9.7304-9.74838z"/></clipPath><linearGradient id="c" gradientTransform="matrix(0 -.02997233 .02997147 0 -3.046725 13.636635)" gradientUnits="userSpaceOnUse" x1="459.03448" x2="35.310345" y1="419.23337" y2="207.36522"><stop offset="0" stop-color="#f2f2f2"/><stop offset="1" stop-color="#f9f9f9"/></linearGradient><path d="m4.1624033.39686925c-.5882111 0-1.0513696.0135414-1.4324701.0775147-.3811032.06397198-.692957.18396448-.9213929.41186098-.2284333.22789677-.3490013.53961007-.412377.92087407-.063376.3812644-.075747.845434-.072864 1.4350545v3.2401124 3.2416624c-.00286.5887147.00955 1.0526497.072864 1.4335037.063376.381265.1839437.692978.412377.920875.2284359.227896.5402897.34789.9213929.411861.3811032.06397.844259.07752 1.4324701.07752h4.3759596c.5882109 0 1.0511259-.01352 1.4314379-.07752.3803122-.064.6912142-.184399.9188062-.412377.227594-.227978.34745-.53947.411345-.920359.06389-.380886.07752-.844114.07752-1.4335037v-3.2416624-3.2416626c0-.5893895-.01363-1.0526162-.07752-1.4335043-.06389-.3808878-.183751-.6923783-.411345-.92035727-.227592-.2279788-.538494-.348378-.9188062-.4123778-.380312-.064-.843227-.0775147-1.4314379-.0775147z" opacity=".1"/><path d="m4.1625647.39686925c-2.334731 0-2.585945.23980508-2.5745017 2.57925885v3.2415745 3.2415744c-.011456 2.339454.2397707 2.579259 2.5745017 2.579259h4.375994c2.3347313 0 2.5745023-.239779 2.5745023-2.579259v-3.2415744-3.2415745c0-2.33948017-.239771-2.57925885-2.5745023-2.57925885z" fill="none" opacity=".2" stroke="#000" stroke-width=".529167"/><path d="m4.1554976.40746926c-2.3347309 0-2.5859449.23980507-2.5745016 2.57925884v3.2415745 3.2415747c-.011456 2.3394527.2397707 2.5792577 2.5745016 2.5792577h4.3759941c2.3347313 0 2.5745013-.239778 2.5745013-2.5792577v-3.2415747-3.2415745c0-2.33948017-.23977-2.57925884-2.5745013-2.57925884z" fill="url(#c)"/><path d="m2.6422437 4.8944107.00396 2.6462085h1.0583357v-.5291666h-.5291688v-1.5875h.5291688v-.5291667zm6.3539717.0003704v.529167h.5291684v1.5874997h-.5291684v.5291667h1.0583346v-2.6458334z" fill="#201a26" fill-opacity=".85" stroke-width=".096016"/><path d="m6.5197402 6.2161738 1.9477226-1.0820691v2.1641382z" fill="#2bba66" stroke-width=".108207"/><circle cx="4.896333" cy="6.215247" fill="#2bba66" r=".973862" stroke-width=".108207"/><path d="m1.5878831 6.2177026v3.2416625c-.011456 2.3394529.2397892 2.5791709 2.5745202 2.5791709h4.3759596c2.3347311 0 2.5745201-.239691 2.5745201-2.5791709v-3.2416625z" fill="#fff" opacity=".2"/><path d="m6.3503831.39686925v11.64166675h2.1879798c2.3347311 0 2.5745201-.239691 2.5745201-2.5791709v-3.2416625-3.2416626c0-2.33948017-.239789-2.57917075-2.5745201-2.57917075z" fill="#fff" opacity=".1"/><path clip-path="url(#b)" d="m335.73108 62c-8.82418 0-9.77365.90635-9.7304 9.74838v12.25162 12.25162c-.0433 8.84203.90622 9.74838 9.7304 9.74838h16.53919c8.82418 0 9.7304-.90625 9.7304-9.74838v-12.25162-12.25162c0-8.84213-.90622-9.74838-9.7304-9.74838z" fill="none" opacity=".4" stroke="url(#a)" stroke-width="2" transform="matrix(.26458333 0 0 .26458333 -84.666283 -16.007297)"/></svg>

<?xml version="1.0" encoding="UTF-8" standalone="no"?>
<svg
   xmlns:dc="http://purl.org/dc/elements/1.1/"
   xmlns:cc="http://creativecommons.org/ns#"
   xmlns:rdf="http://www.w3.org/1999/02/22-rdf-syntax-ns#"
   xmlns:svg="http://www.w3.org/2000/svg"
   xmlns="http://www.w3.org/2000/svg"
   xmlns:xlink="http://www.w3.org/1999/xlink"
   xmlns:sodipodi="http://sodipodi.sourceforge.net/DTD/sodipodi-0.dtd"
   xmlns:inkscape="http://www.inkscape.org/namespaces/inkscape"
   height="48"
   viewBox="0 0 12.7 12.7"
   width="48"
   version="1.1"
   id="svg40"
   sodipodi:docname="text-x-systemd-unit48.svg"
   inkscape:version="0.92.5 (2060ec1f9f, 2020-04-08)">
  <metadata
     id="metadata46">
    <rdf:RDF>
      <cc:Work
         rdf:about="">
        <dc:format>image/svg+xml</dc:format>
        <dc:type
           rdf:resource="http://purl.org/dc/dcmitype/StillImage" />
        <dc:title></dc:title>
      </cc:Work>
    </rdf:RDF>
  </metadata>
  <defs
     id="defs44">
    <linearGradient
       inkscape:collect="always"
       xlink:href="#linearGradient927"
       id="linearGradient1004"
       x1="344"
       y1="62"
       x2="344"
       y2="106"
       gradientUnits="userSpaceOnUse" />
    <linearGradient
       inkscape:collect="always"
       id="linearGradient927">
      <stop
         style="stop-color:#ffffff;stop-opacity:1;"
         offset="0"
         id="stop923" />
      <stop
         id="stop933"
         offset="0.125"
         style="stop-color:#ffffff;stop-opacity:0.09803922" />
      <stop
         id="stop931"
         offset="0.92500001"
         style="stop-color:#ffffff;stop-opacity:0.09803922" />
      <stop
         style="stop-color:#ffffff;stop-opacity:0.49803922"
         offset="1"
         id="stop925" />
    </linearGradient>
    <clipPath
       clipPathUnits="userSpaceOnUse"
       id="clipPath994">
      <path
         style="color:#000000;display:inline;overflow:visible;visibility:visible;fill:#cdcdcd;fill-opacity:1;fill-rule:nonzero;stroke:none;stroke-width:2;stroke-miterlimit:4;stroke-dasharray:none;stroke-opacity:1;marker:none;enable-background:accumulate"
         d="m 335.73108,62 c -8.82418,0 -9.77365,0.90635 -9.7304,9.74838 V 84 96.25162 c -0.0433,8.84203 0.90622,9.74838 9.7304,9.74838 h 16.53919 c 8.82418,0 9.7304,-0.90625 9.7304,-9.74838 V 84 71.74838 C 362.00067,62.90625 361.09445,62 352.27027,62 Z"
         id="path996"
         inkscape:connector-curvature="0"
         sodipodi:nodetypes="scccssscsss" />
    </clipPath>
    <linearGradient
       inkscape:collect="always"
       xlink:href="#linearGradient4338"
       id="linearGradient1024"
       gradientUnits="userSpaceOnUse"
       gradientTransform="matrix(0,-0.02997233,0.02997147,0,-3.0467252,13.636635)"
       x1="459.03448"
       y1="419.23337"
       x2="35.310345"
       y2="207.36522" />
    <linearGradient
       inkscape:collect="always"
       id="linearGradient4338">
      <stop
         style="stop-color:#f2f2f2;stop-opacity:1"
         offset="0"
         id="stop4340" />
      <stop
         style="stop-color:#f9f9f9;stop-opacity:1"
         offset="1"
         id="stop4342" />
    </linearGradient>
  </defs>
  <sodipodi:namedview
     pagecolor="#ffffff"
     bordercolor="#666666"
     borderopacity="1"
     objecttolerance="10"
     gridtolerance="10"
     guidetolerance="10"
     inkscape:pageopacity="0"
     inkscape:pageshadow="2"
     inkscape:window-width="773"
     inkscape:window-height="480"
     id="namedview42"
     showgrid="false"
     inkscape:zoom="4.9166667"
     inkscape:cx="24"
     inkscape:cy="24"
     inkscape:window-x="0"
     inkscape:window-y="27"
     inkscape:window-maximized="0"
     inkscape:current-layer="svg40" />
  <linearGradient
     id="a"
     gradientUnits="userSpaceOnUse"
     x1="6.35075852"
     x2="6.35075852"
     y1="284.43232313"
     y2="296.60315631">
    <stop
       offset="0"
       stop-color="#fff"
       id="stop2" />
    <stop
       offset=".125"
       stop-color="#fff"
       stop-opacity=".098039"
       id="stop4" />
    <stop
       offset=".92500001"
       stop-color="#fff"
       stop-opacity=".098039"
       id="stop6" />
    <stop
       offset="1"
       stop-opacity=".498039"
       id="stop8" />
  </linearGradient>
  <linearGradient
     id="b"
     gradientTransform="matrix(0 -.02997233 -.02997147 0 15.740061 297.92607)"
     gradientUnits="userSpaceOnUse"
     x1="512"
     x2="-.000001"
     y1="397.99393"
     y2="125.99394">
    <stop
       offset="0"
       stop-color="#76c22b"
       id="stop11" />
    <stop
       offset="1"
       stop-color="#a6d74f"
       id="stop13" />
  </linearGradient>
  <path
     style="color:#000000;font-style:normal;font-variant:normal;font-weight:normal;font-stretch:normal;font-size:medium;line-height:normal;font-family:sans-serif;font-variant-ligatures:normal;font-variant-position:normal;font-variant-caps:normal;font-variant-numeric:normal;font-variant-alternates:normal;font-feature-settings:normal;text-indent:0;text-align:start;text-decoration:none;text-decoration-line:none;text-decoration-style:solid;text-decoration-color:#000000;letter-spacing:normal;word-spacing:normal;text-transform:none;writing-mode:lr-tb;direction:ltr;text-orientation:mixed;dominant-baseline:auto;baseline-shift:baseline;text-anchor:start;white-space:normal;shape-padding:0;clip-rule:nonzero;display:inline;overflow:visible;visibility:visible;opacity:0.1;isolation:auto;mix-blend-mode:normal;color-interpolation:sRGB;color-interpolation-filters:linearRGB;solid-color:#000000;solid-opacity:1;vector-effect:none;fill:#000000;fill-opacity:1;fill-rule:nonzero;stroke:none;stroke-width:0.52916664;stroke-linecap:butt;stroke-linejoin:miter;stroke-miterlimit:4;stroke-dasharray:none;stroke-dashoffset:0;stroke-opacity:1;marker:none;color-rendering:auto;image-rendering:auto;shape-rendering:auto;text-rendering:auto;enable-background:accumulate"
     d="m 4.1624033,0.39686925 c -0.5882111,0 -1.0513696,0.0135414 -1.4324701,0.0775147 C 2.34883,0.53835593 2.0369762,0.65834843 1.8085403,0.88624493 1.580107,1.1141417 1.459539,1.425855 1.3961633,1.807119 1.3327873,2.1883834 1.3204163,2.652553 1.3232993,3.2421735 v 3.2401124 3.2416624 c -0.00286,0.5887147 0.00955,1.0526497 0.072864,1.4335037 0.063376,0.381265 0.1839437,0.692978 0.412377,0.920875 0.2284359,0.227896 0.5402897,0.34789 0.9213929,0.411861 0.3811032,0.06397 0.844259,0.07752 1.4324701,0.07752 h 4.3759596 c 0.5882109,0 1.0511259,-0.01352 1.4314379,-0.07752 0.3803122,-0.064 0.6912142,-0.184399 0.9188062,-0.412377 0.227594,-0.227978 0.34745,-0.53947 0.411345,-0.920359 0.06389,-0.380886 0.07752,-0.844114 0.07752,-1.4335037 V 6.4822859 3.2406233 c 0,-0.5893895 -0.01363,-1.0526162 -0.07752,-1.4335043 -0.06389,-0.3808878 -0.183751,-0.6923783 -0.411345,-0.92035727 -0.227592,-0.2279788 -0.538494,-0.348378 -0.9188062,-0.4123778 -0.380312,-0.064 -0.843227,-0.0775147 -1.4314379,-0.0775147 z"
     id="path1020"
     inkscape:connector-curvature="0"
     sodipodi:nodetypes="sccsccccccsscccscsccsss" />
  <path
     style="color:#000000;display:inline;overflow:visible;visibility:visible;opacity:0.2;fill:none;fill-opacity:1;fill-rule:nonzero;stroke:#000000;stroke-width:0.52916664;stroke-miterlimit:4;stroke-dasharray:none;stroke-opacity:1;marker:none;enable-background:accumulate"
     d="m 4.1625647,0.39686925 c -2.334731,0 -2.585945,0.23980508 -2.5745017,2.57925885 V 6.2177026 9.459277 c -0.011456,2.339454 0.2397707,2.579259 2.5745017,2.579259 h 4.375994 c 2.3347313,0 2.5745023,-0.239779 2.5745023,-2.579259 V 6.2177026 2.9761281 c 0,-2.33948017 -0.239771,-2.57925885 -2.5745023,-2.57925885 z"
     id="path958"
     inkscape:connector-curvature="0"
     sodipodi:nodetypes="scccssscsss" />
  <path
     style="color:#000000;display:inline;overflow:visible;visibility:visible;fill:url(#linearGradient1024);fill-opacity:1;fill-rule:nonzero;stroke:none;stroke-width:0.26458332;marker:none;enable-background:accumulate"
     d="m 4.1554976,0.40746926 c -2.3347309,0 -2.5859449,0.23980507 -2.5745016,2.57925884 V 6.2283026 9.4698773 C 1.56954,11.80933 1.8207667,12.049135 4.1554976,12.049135 h 4.3759941 c 2.3347313,0 2.5745013,-0.239778 2.5745013,-2.5792577 V 6.2283026 2.9867281 c 0,-2.33948017 -0.23977,-2.57925884 -2.5745013,-2.57925884 z"
     id="path964"
     inkscape:connector-curvature="0"
     sodipodi:nodetypes="scccssscsss" />
  <path
     sodipodi:nodetypes="cccccccccccccccccc"
     inkscape:connector-curvature="0"
     overflow="visible"
     font-weight="400"
     d="m 2.6422437,4.8944107 0.00396,2.6462085 H 3.7045394 V 7.0114526 H 3.1753706 v -1.5875 H 3.7045394 V 4.8947859 Z m 6.3539717,3.704e-4 v 0.529167 H 9.5253838 V 7.0114478 H 8.9962154 V 7.5406145 H 10.05455 V 4.8947811 Z"
     style="color:#000000;font-weight:400;line-height:normal;font-family:sans-serif;font-variant-ligatures:normal;font-variant-position:normal;font-variant-caps:normal;font-variant-numeric:normal;font-variant-alternates:normal;font-feature-settings:normal;text-indent:0;text-align:start;text-decoration:none;text-decoration-line:none;text-decoration-style:solid;text-decoration-color:#000000;text-transform:none;text-orientation:mixed;white-space:normal;shape-padding:0;display:inline;overflow:visible;isolation:auto;mix-blend-mode:normal;solid-color:#000000;solid-opacity:1;fill:#201a26;fill-opacity:0.85;stroke-width:0.09601561;enable-background:new"
     id="path1045" />
  <path
     inkscape:connector-curvature="0"
     style="display:inline;fill:#2bba66;fill-opacity:1;stroke-width:0.10820689;enable-background:new"
     d="M 6.5197402,6.2161738 8.4674628,5.1341047 v 2.1641382 z"
     id="path1047" />
  <circle
     style="display:inline;fill:#2bba66;fill-opacity:1;stroke-width:0.10820689;enable-background:new"
     cx="4.8963332"
     cy="6.2152472"
     r="0.97386211"
     id="circle1049" />
  <path
     style="color:#000000;display:inline;overflow:visible;visibility:visible;opacity:0.2;fill:#ffffff;fill-opacity:1;fill-rule:nonzero;stroke:none;stroke-width:0.26458332;marker:none;enable-background:accumulate"
     d="m 1.5878831,6.2177026 v 3.2416625 c -0.011456,2.3394529 0.2397892,2.5791709 2.5745202,2.5791709 h 4.3759596 c 2.3347311,0 2.5745201,-0.239691 2.5745201,-2.5791709 V 6.2177026 Z"
     id="path1006"
     inkscape:connector-curvature="0" />
  <path
     style="color:#000000;display:inline;overflow:visible;visibility:visible;opacity:0.1;fill:#ffffff;fill-opacity:1;fill-rule:nonzero;stroke:none;stroke-width:0.26458332;marker:none;enable-background:accumulate"
     d="M 6.3503831,0.39686925 V 12.038536 h 2.1879798 c 2.3347311,0 2.5745201,-0.239691 2.5745201,-2.5791709 V 6.2177026 2.97604 c 0,-2.33948017 -0.239789,-2.57917075 -2.5745201,-2.57917075 z"
     id="path1013"
     inkscape:connector-curvature="0" />
  <path
     transform="matrix(0.26458333,0,0,0.26458333,-84.666283,-16.007297)"
     sodipodi:nodetypes="scccssscsss"
     inkscape:connector-curvature="0"
     id="path990"
     d="m 335.73108,62 c -8.82418,0 -9.77365,0.90635 -9.7304,9.74838 V 84 96.25162 c -0.0433,8.84203 0.90622,9.74838 9.7304,9.74838 h 16.53919 c 8.82418,0 9.7304,-0.90625 9.7304,-9.74838 V 84 71.74838 C 362.00067,62.90625 361.09445,62 352.27027,62 Z"
     style="color:#000000;display:inline;overflow:visible;visibility:visible;opacity:0.4;fill:none;fill-opacity:1;fill-rule:nonzero;stroke:url(#linearGradient1004);stroke-width:2;stroke-miterlimit:4;stroke-dasharray:none;stroke-opacity:1;marker:none;enable-background:accumulate"
     clip-path="url(#clipPath994)" />
</svg>
